X:1304
T:Mars nr. 51 eftir Svabo
L:1/8
M:4/4
R:march
O:Faroe Islands
S:Spaelimenninir
N:Dotted note pairs played with a lightly dotted rhythm
Z:<http://tunes.nhcountrydance.com>.
K:D
|:F>G\ 
|  "D" A2A2A2 B>c | d6 A2 | "G" B>(d c>d) "A"B>(d c>d) | "A7" A2 G2 "D" F2 A2 | 
   "G" B>(d c>d) "A" B>(d c>d) | "A7" A2 G2 "D" F2 d2 | "A7"(c2 d2) (e2 f2) | g6 a>g | "D" f>e d>e "A7" f2 e2 | "D" d6 :|
|: d>e\
| "D" f2f2f2 e>d | "A" e2 a2 a2 B>c | "Bm" d2d2d2 c>B | "F#m"c2f2f2 A2 | 
  "G" B2B2B2dB | "D/F#" A6dA | "Em" G2G2 "A7" GBAG | "D" F6 A2 | "G" B>(d c>d) "A"B>(d c>d) | "A7" A2 G2 "D" F2 A2 | 
   "G" B>(d c>d) "A" B>(d c>d) | "A7" A2 G2 "D" F2 d2 | "A7"(c2 d2) (e2 f2) | g6 a>g | "D" f>e d>e "A7" f2 e2 | "D" d6 :|

